X:18171
T:VALSE ECOSSAISE 2
Z: YVES BELOTTEAU
Z: Yves BELOTTEAU
M:3/4
L:1/8
Q:1/4=120
K:G 
|B3/2A/2B/2A/2 G3/2 z/2 D|E3/2 z/2 F/2E/2 D3/2 z/2 D|B3/2A/2B/2c/2 d3/2 
z/2 G|F3/2 z/2 G A3/2 z/2 D|
 B3/2A/2B/2A/2 G3/2 z/2 D|E3/2 z/2 F/2E/2 D3/2 z/2 B/2c/2|d3/2 z/2 G/2A/
2 B3/2 z/2 A|G3 G3/2 z/2 D|
B3/2A/2B/2c/2 d3/2 z/2 G|F3/2 z/2 G A3/2 z/2 D|A3/2G/2A/2B/2 c3/2 z/2 F|
G3/2 z/2 A BGD|
B3/2A/2B/2c/2 d3/2 z/2 G|F3/2E/2F/2E/2 D3/2 z/2 B/2c/2|d3/2 z/2 G/2A/2 B
3/2 z/2 A|G3 G3/2|
